resume.svg

<?xml version="1.0" encoding="iso-8859-1"?>
<!-- Generator: Adobe Illustrator 19.0.0, SVG Export Plug-In . SVG Version: 6.00 Build 0)  -->
<svg version="1.1" id="Capa_1" xmlns="http://www.w3.org/2000/svg" xmlns:xlink="http://www.w3.org/1999/xlink" x="0px" y="0px"
	 viewBox="0 0 60 60" style="enable-background:new 0 0 60 60;" xml:space="preserve">
<g>
	<path d="M38.914,0H6.5v60h47V14.586L38.914,0z M39.5,3.414L50.086,14H39.5V3.414z M8.5,58V2h29v14h14v42H8.5z"/>
	<path d="M34.5,37c0.552,0,1-0.447,1-1s-0.448-1-1-1h-17c-0.552,0-1,0.447-1,1s0.448,1,1,1H34.5z"/>
	<path d="M44.5,30h-7c-0.552,0-1,0.447-1,1s0.448,1,1,1h7c0.552,0,1-0.447,1-1S45.052,30,44.5,30z"/>
	<path d="M21.5,31c0,0.553,0.448,1,1,1h10c0.552,0,1-0.447,1-1s-0.448-1-1-1h-10C21.948,30,21.5,30.447,21.5,31z"/>
	<path d="M16.79,30.29c-0.18,0.189-0.29,0.449-0.29,0.71c0,0.26,0.11,0.52,0.29,0.7c0.18,0.189,0.44,0.3,0.71,0.3
		s0.52-0.11,0.71-0.29c0.18-0.19,0.29-0.45,0.29-0.71c0-0.261-0.11-0.521-0.29-0.71C17.84,29.92,17.15,29.93,16.79,30.29z"/>
	<path d="M38.79,35.29c-0.18,0.189-0.29,0.439-0.29,0.71c0,0.27,0.1,0.52,0.29,0.71C38.98,36.89,39.24,37,39.5,37
		c0.26,0,0.52-0.11,0.71-0.29c0.19-0.19,0.29-0.44,0.29-0.71c0-0.261-0.11-0.521-0.29-0.71C39.83,34.92,39.17,34.92,38.79,35.29z"/>
	<path d="M43.79,35.29c-0.18,0.189-0.29,0.439-0.29,0.71c0,0.27,0.1,0.52,0.29,0.71C43.98,36.89,44.24,37,44.5,37
		c0.26,0,0.52-0.11,0.71-0.3c0.19-0.19,0.29-0.44,0.29-0.7c0-0.261-0.11-0.521-0.29-0.71C44.83,34.92,44.17,34.92,43.79,35.29z"/>
	<path d="M23.025,40.166c-2.19,1.14-2.927,3.321-3.196,5.582c-0.414-0.347-0.828-0.693-1.242-1.04
		c-0.98-0.821-2.402,0.586-1.414,1.415c0.935,0.783,1.871,1.567,2.806,2.351c0.658,0.551,1.676,0.203,1.707-0.707
		c0.073-2.166,0.175-4.742,2.348-5.873C25.177,41.299,24.166,39.572,23.025,40.166z"/>
	<path d="M36.455,44.108c-1.458-0.092-3.592,2.155-4.716,0.153c-0.26-0.464-0.913-0.638-1.368-0.359
		c-1.416,0.869-3.267,2.119-4.756,0.5c-0.873-0.949-2.285,0.468-1.414,1.414c1.87,2.033,4.276,1.415,6.399,0.263
		c0.478,0.535,1.071,0.926,1.837,1.081c0.792,0.16,4.025-1.141,4.2-0.901c0.752,1.029,2.488,0.032,1.727-1.009
		C37.847,44.543,37.371,44.166,36.455,44.108z"/>
	<path d="M28.666,23.963l0.674-0.479l-0.344-0.752c-0.312-0.682-0.813-1.212-1.45-1.532l-2.12-1.082
		c0.975-0.623,1.676-1.561,2.095-2.801c0.684-0.417,1.115-1.158,1.115-1.984v-0.667c0-0.677-0.294-1.308-0.794-1.745
		c-0.357-1.898-1.644-3.951-5.54-3.951c-0.153,0-0.303,0.006-0.451,0.018c-0.523,0.043-1.285,0-1.937-0.438
		c-0.303-0.204-0.458-0.362-0.534-0.459c-0.317-0.403-0.849-0.544-1.324-0.35c-0.474,0.195-0.752,0.669-0.694,1.179
		c0.03,0.257,0.073,0.557,0.138,0.884c0.084,0.42,0.089,0.541,0.086,0.573c-0.008,0.035-0.066,0.159-0.112,0.259
		c-0.07,0.15-0.156,0.335-0.257,0.582c-0.217,0.529-0.375,1.105-0.471,1.719c-0.489,0.438-0.778,1.063-0.778,1.73v0.667
		c0,0.826,0.431,1.567,1.115,1.984c0.417,1.235,1.115,2.171,2.083,2.793l-2.204,1.087c-0.613,0.334-1.091,0.867-1.382,1.541
		l-0.32,0.741l0.656,0.469C17.797,25.291,20.004,26,22.302,26C24.592,26,26.792,25.296,28.666,23.963z M18.016,22.907l2.445-1.204
		c0.519-0.257,0.842-0.776,0.842-1.355v-1.422l-0.604-0.261c-0.912-0.392-1.506-1.151-1.819-2.321l-0.143-0.533l-0.527-0.164
		c-0.116-0.036-0.24-0.149-0.24-0.313v-0.667c0-0.142,0.095-0.242,0.184-0.289l0.469-0.25l0.055-0.529
		c0.062-0.595,0.193-1.14,0.391-1.622c0.086-0.211,0.16-0.368,0.22-0.497c0.155-0.332,0.249-0.578,0.283-0.855
		c0.73,0.305,1.559,0.425,2.44,0.358c0.095-0.008,0.192-0.012,0.291-0.012c2.919,0,3.469,1.334,3.622,2.638l0.061,0.523l0.466,0.245
		c0.089,0.047,0.185,0.147,0.185,0.29v0.667c0,0.164-0.125,0.277-0.24,0.313l-0.527,0.164l-0.143,0.533
		c-0.313,1.17-0.908,1.93-1.819,2.321l-0.604,0.261v1.428c0,0.57,0.315,1.086,0.825,1.347l2.415,1.233
		C23.923,24.343,20.628,24.334,18.016,22.907z"/>
</g>
<g>
</g>
<g>
</g>
<g>
</g>
<g>
</g>
<g>
</g>
<g>
</g>
<g>
</g>
<g>
</g>
<g>
</g>
<g>
</g>
<g>
</g>
<g>
</g>
<g>
</g>
<g>
</g>
<g>
</g>
</svg>

<?xml version="1.0" encoding="UTF-8" standalone="no"?>
<!DOCTYPE svg PUBLIC "-//W3C//DTD SVG 1.1//EN" "http://www.w3.org/Graphics/SVG/1.1/DTD/svg11.dtd">
<svg width="100%" height="100%" viewBox="0 0 60 60" version="1.1" xmlns="http://www.w3.org/2000/svg" xmlns:xlink="http://www.w3.org/1999/xlink" xml:space="preserve" xmlns:serif="http://www.serif.com/" style="fill-rule:evenodd;clip-rule:evenodd;stroke-linejoin:round;stroke-miterlimit:1.41421;">
    <g>
        <path d="M38.914,0L6.5,0L6.5,60L53.5,60L53.5,14.586L38.914,0ZM39.5,3.414L50.086,14L39.5,14L39.5,3.414ZM8.5,58L8.5,2L37.5,2L37.5,16L51.5,16L51.5,58L8.5,58Z" style="fill:white;fill-rule:nonzero;"/>
        <path d="M34.5,37C35.052,37 35.5,36.553 35.5,36C35.5,35.447 35.052,35 34.5,35L17.5,35C16.948,35 16.5,35.447 16.5,36C16.5,36.553 16.948,37 17.5,37L34.5,37Z" style="fill:white;fill-rule:nonzero;"/>
        <path d="M44.5,30L37.5,30C36.948,30 36.5,30.447 36.5,31C36.5,31.553 36.948,32 37.5,32L44.5,32C45.052,32 45.5,31.553 45.5,31C45.5,30.447 45.052,30 44.5,30Z" style="fill:white;fill-rule:nonzero;"/>
        <path d="M21.5,31C21.5,31.553 21.948,32 22.5,32L32.5,32C33.052,32 33.5,31.553 33.5,31C33.5,30.447 33.052,30 32.5,30L22.5,30C21.948,30 21.5,30.447 21.5,31Z" style="fill:white;fill-rule:nonzero;"/>
        <path d="M16.79,30.29C16.61,30.479 16.5,30.739 16.5,31C16.5,31.26 16.61,31.52 16.79,31.7C16.97,31.889 17.23,32 17.5,32C17.77,32 18.02,31.89 18.21,31.71C18.39,31.52 18.5,31.26 18.5,31C18.5,30.739 18.39,30.479 18.21,30.29C17.84,29.92 17.15,29.93 16.79,30.29Z" style="fill:white;fill-rule:nonzero;"/>
        <path d="M38.79,35.29C38.61,35.479 38.5,35.729 38.5,36C38.5,36.27 38.6,36.52 38.79,36.71C38.98,36.89 39.24,37 39.5,37C39.76,37 40.02,36.89 40.21,36.71C40.4,36.52 40.5,36.27 40.5,36C40.5,35.739 40.39,35.479 40.21,35.29C39.83,34.92 39.17,34.92 38.79,35.29Z" style="fill:white;fill-rule:nonzero;"/>
        <path d="M43.79,35.29C43.61,35.479 43.5,35.729 43.5,36C43.5,36.27 43.6,36.52 43.79,36.71C43.98,36.89 44.24,37 44.5,37C44.76,37 45.02,36.89 45.21,36.7C45.4,36.51 45.5,36.26 45.5,36C45.5,35.739 45.39,35.479 45.21,35.29C44.83,34.92 44.17,34.92 43.79,35.29Z" style="fill:white;fill-rule:nonzero;"/>
        <path d="M23.025,40.166C20.835,41.306 20.098,43.487 19.829,45.748C19.415,45.401 19.001,45.055 18.587,44.708C17.607,43.887 16.185,45.294 17.173,46.123C18.108,46.906 19.044,47.69 19.979,48.474C20.637,49.025 21.655,48.677 21.686,47.767C21.759,45.601 21.861,43.025 24.034,41.894C25.177,41.299 24.166,39.572 23.025,40.166Z" style="fill:white;fill-rule:nonzero;"/>
        <path d="M36.455,44.108C34.997,44.016 32.863,46.263 31.739,44.261C31.479,43.797 30.826,43.623 30.371,43.902C28.955,44.771 27.104,46.021 25.615,44.402C24.742,43.453 23.33,44.87 24.201,45.816C26.071,47.849 28.477,47.231 30.6,46.079C31.078,46.614 31.671,47.005 32.437,47.16C33.229,47.32 36.462,46.019 36.637,46.259C37.389,47.288 39.125,46.291 38.364,45.25C37.847,44.543 37.371,44.166 36.455,44.108Z" style="fill:white;fill-rule:nonzero;"/>
        <path d="M28.666,23.963L29.34,23.484L28.996,22.732C28.684,22.05 28.183,21.52 27.546,21.2L25.426,20.118C26.401,19.495 27.102,18.557 27.521,17.317C28.205,16.9 28.636,16.159 28.636,15.333L28.636,14.666C28.636,13.989 28.342,13.358 27.842,12.921C27.485,11.023 26.198,8.97 22.302,8.97C22.149,8.97 21.999,8.976 21.851,8.988C21.328,9.031 20.566,8.988 19.914,8.55C19.611,8.346 19.456,8.188 19.38,8.091C19.063,7.688 18.531,7.547 18.056,7.741C17.582,7.936 17.304,8.41 17.362,8.92C17.392,9.177 17.435,9.477 17.5,9.804C17.584,10.224 17.589,10.345 17.586,10.377C17.578,10.412 17.52,10.536 17.474,10.636C17.404,10.786 17.318,10.971 17.217,11.218C17,11.747 16.842,12.323 16.746,12.937C16.257,13.375 15.968,14 15.968,14.667L15.968,15.334C15.968,16.16 16.399,16.901 17.083,17.318C17.5,18.553 18.198,19.489 19.166,20.111L16.962,21.198C16.349,21.532 15.871,22.065 15.58,22.739L15.26,23.48L15.916,23.949C17.797,25.291 20.004,26 22.302,26C24.592,26 26.792,25.296 28.666,23.963ZM18.016,22.907L20.461,21.703C20.98,21.446 21.303,20.927 21.303,20.348L21.303,18.926L20.699,18.665C19.787,18.273 19.193,17.514 18.88,16.344L18.737,15.811L18.21,15.647C18.094,15.611 17.97,15.498 17.97,15.334L17.97,14.667C17.97,14.525 18.065,14.425 18.154,14.378L18.623,14.128L18.678,13.599C18.74,13.004 18.871,12.459 19.069,11.977C19.155,11.766 19.229,11.609 19.289,11.48C19.444,11.148 19.538,10.902 19.572,10.625C20.302,10.93 21.131,11.05 22.012,10.983C22.107,10.975 22.204,10.971 22.303,10.971C25.222,10.971 25.772,12.305 25.925,13.609L25.986,14.132L26.452,14.377C26.541,14.424 26.637,14.524 26.637,14.667L26.637,15.334C26.637,15.498 26.512,15.611 26.397,15.647L25.87,15.811L25.727,16.344C25.414,17.514 24.819,18.274 23.908,18.665L23.304,18.926L23.304,20.354C23.304,20.924 23.619,21.44 24.129,21.701L26.544,22.934C23.923,24.343 20.628,24.334 18.016,22.907Z" style="fill:white;fill-rule:nonzero;"/>
    </g>
</svg>
